X:1045
T:Miss Montgomery of Skelmorlie's Do.
M:C
L:1/8
Q:1/4=120
I: :| ||
Z:Jack Campin * www.campin.me.uk * 2009
K:G
g|d<GTd>B  A>Bc>e|d<Gd>B  d>eg>b|ge`Td>B A>Bc>e|dG````d>B   G2G :|
g|Gg``g>b  a>ga>b|G(gg>)b g>bgd |e>gTd>B A>Bc>e|d<G```d>B   G2G>g|
  G<g`g>b Ta>gab |G<gg>b  g<bg>d|e>g`dB  A>Bc>e|Gg/a/ bg {f}g2ge|]
<end>
<start>
